src/16/actions/labplot-xy-plot-four-axes.svg

<svg xmlns="http://www.w3.org/2000/svg" width="16" height="16" viewBox="0 0 16 16">
 <defs>
  <style id="current-color-scheme" type="text/css">
   .ColorScheme-Text { color:#565656; } .ColorScheme-Highlight { color:#5294e2; }
  </style>
 </defs>
 <path style="fill:currentColor" class="ColorScheme-Text" d="M 0 0 L 0 16 L 16 16 L 16 0 L 1 0 L 0 0 z M 1 1 L 13.71875 1 L 13.25 1.46875 L 12.4375 2.28125 L 11.125 3.59375 L 9 1.46875 L 7.46875 3 L 7 3.46875 L 6.15625 4.28125 L 4.46875 6 L 1 6 L 1 1 z M 15 1.125 L 15 14.84375 L 14.71875 14.5625 L 13.96875 13.8125 L 13.125 13 L 11.84375 11.6875 L 11.125 11 L 9 13.09375 L 7.6875 11.8125 L 6.875 11 L 4.875 9 L 1 9 L 1 7 L 4.875 7 L 6.875 5 L 7.6875 4.15625 L 9 2.875 L 11.125 5 L 13.125 3 L 13.96875 2.15625 L 15 1.125 z M 1 10 L 4.46875 10 L 6.15625 11.6875 L 7 12.53125 L 7.46875 13 L 9 14.53125 L 9.53125 14 L 11.125 12.40625 L 12.4375 13.6875 L 12.9375 14.21875 L 13.25 14.53125 L 13.28125 14.5625 L 13.71875 15 L 1 15 L 1 10 z"/>
</svg>

<svg xmlns="http://www.w3.org/2000/svg" width="16" height="16"><defs><style id="current-color-scheme" type="text/css"></style></defs><path d="M0 0v16h16V0H0zm1 1h12.719l-.469.469-.813.812-1.312 1.313L9 1.469 7.469 3 7 3.469l-.844.812L4.47 6H1V1zm14 .125v13.719l-.281-.281-.75-.75-.844-.813-1.281-1.313-.719-.687L9 13.094l-1.313-1.281L6.875 11l-2-2H1V7h3.875l2-2 .813-.844L9 2.875 11.125 5l2-2 .844-.844L15 1.125zM1 10h3.469l1.687 1.688.844.843.469.469L9 14.531 9.531 14l1.594-1.594 1.313 1.281.5.532.312.312.031.031.438.438H1v-5z" fill="currentColor" color="#565656"/></svg>
